src/status/16/indicator-workspaces-11.svg

<svg viewBox="0 0 16 16" xmlns="http://www.w3.org/2000/svg">
 <g transform="translate(-.141 -1037)" fill="#2e3440">
  <path d="m4.594 1045.3h1.056v-2.998l-1.084 0.224v-0.814l1.078-0.224h1.137v3.813h1.056v0.826h-3.244v-0.826z"/>
  <path d="m8.473 1045.3h1.056v-2.998l-1.084 0.224v-0.814l1.078-0.224h1.137v3.813h1.056v0.826h-3.244v-0.826z"/>
 </g>
 <path d="m1 1c-0.554 0-1 0.446-1 1v9c0 0.554 0.45354 1.0911 1 1h6v2l-2.998 2h8l-3.002-2v-2h6c0.554 0 1-0.446 1-1v-9c0-0.554-0.446-1-1-1zm0.5 1h13c0.277 0 0.5 0.223 0.5 0.5v8c0 0.277-0.223 0.5-0.5 0.5h-13c-0.277 0-0.5-0.223-0.5-0.5v-8c0-0.277 0.223-0.5 0.5-0.5z" fill="#2e3440"/>
</svg>

<svg xmlns="http://www.w3.org/2000/svg" viewBox="0 0 16 16">
 <g style="fill:#2e3440;fill-opacity:1;stroke:none" transform="matrix(1 0 0 1 -0.141 -1037.04)">
  <path d="M 4.594,1045.26 H 5.65 v -2.998 l -1.084,0.224 v -0.814 l 1.078,-0.224 h 1.137 v 3.813 h 1.056 v 0.826 H 4.593 v -0.826 z"/>
  <path d="m 8.473,1045.26 h 1.056 v -2.998 l -1.084,0.224 v -0.814 l 1.078,-0.224 h 1.137 v 3.813 h 1.056 v 0.826 H 8.472 v -0.826 z"/>
 </g>
 <path style="fill:#2e3440;fill-opacity:1;stroke-width:1" d="M 1,1 C 0.446,1 0,1.446 0,2 v 9 c 0,0.554 0.453538,1.091077 1,1 h 6 v 2 l -2.998047,2 h 8 L 9,14 v -2 h 6 c 0.554,0 1,-0.446 1,-1 V 2 C 16,1.446 15.554,1 15,1 Z m 0.5,1 h 13 C 14.777,2 15,2.223 15,2.5 v 8 C 15,10.777 14.777,11 14.5,11 H 1.5 C 1.223,11 1,10.777 1,10.5 v -8 C 1,2.223 1.223,2 1.5,2 Z"/>
</svg>
